!!!COM: Leoš [Leo Eugen] Janáček
!!!OTL: [T123_Jan-w11p5s2-3]
**kern	**dynam	**kern	**dynam	**kern	**dynam	**kern	**dynam	**kern	**dynam	**kern	**dynam	**kern	**dynam	**kern	**dynam	**kern	**dynam	**kern	**dynam	**kern	**dynam	**kern	**dynam	**kern	**dynam	**kern	**dynam	**kern	**dynam	**kern	**dynam	**kern	**dynam	**kern	**dynam
*grp:A	*grp:A	*grp:A	*grp:A	*grp:A	*grp:A	*grp:B	*grp:B	*grp:B	*grp:B	*grp:B	*grp:B	*grp:B	*grp:B	*grp:B	*grp:B	*grp:A	*grp:A	*grp:B	*grp:B	*grp:B	*grp:B	*grp:B	*grp:B	*grp:B	*grp:B	*grp:A	*grp:A	*grp:A	*grp:A	*grp:B	*grp:B	*grp:B	*grp:B	*grp:B	*grp:B
*part18	*part18	*part17	*part17	*part16	*part16	*part15	*part15	*part14	*part14	*part13	*part13	*part12	*part12	*part11	*part11	*part10	*part10	*part9	*part9	*part8	*part8	*part7	*part7	*part6	*part6	*part5	*part5	*part4	*part4	*part3	*part3	*part2	*part2	*part1	*part1
*staff18	*staff18	*staff17	*staff17	*staff16	*staff16	*staff15	*staff15	*staff14	*staff14	*staff13	*staff13	*staff12	*staff12	*staff11	*staff11	*staff10	*staff10	*staff9	*staff9	*staff8	*staff8	*staff7	*staff7	*staff6	*I"Horn in F 2	*staff5	*staff5	*staff4	*staff4	*staff3	*staff3	*staff2	*staff2	*staff1	*staff1
*I"Contrabass	*I"Contrabass	*I"Violoncello	*I"Violoncello	*I"Viola	*I"Viola	*I"Violin II	*I"Violin II	*I"Violin I	*I"Violin I	*I"Timpani	*I"Timpani	*I"Trombone 3	*I"Trombone 3	*I"Trombone 1, 2	*I"Trombone 1, 2	*I"Trumpet in Bb 1, 2	*I"Trumpet in Bb 1, 2	*I"Horn in F 4 (ossia ES)	*I"Horn in F 4 (ossia ES)	*I"Horn in F 3	*I"Horn in F 3	*I"Horn in F 2	*I"Horn in F 2	*I"Horn in F 1	*I"Horn in F 1	*I"Bassoon 2	*I"Bassoon 2	*I"Bassoon 1	*I"Bassoon 1	*I"Clarinet in Bb 1, 2	*I"Clarinet in Bb 1, 2	*I"Oboe 1, 2	*I"Oboe 1, 2	*I"Flute 1, 2	*I"Flute 1, 2
*I'Cb.	*	*I'Vc.	*	*I'Vla.	*	*I'Vln. II	*	*I'Vln. I	*	*I'Timp.	*	*I'Tbn.	*	*I'Tbn.	*	*I'Tpt.	*	*I'Hn.	*	*I'Hn.	*	*I'Hn.	*	*I'Hn.	*	*I'Bsn.	*	*I'Bsn.	*	*I'Cl.	*	*I'Ob.	*	*I'Fl.	*
!!pagebreak:original
*clefF4	*	*clefF4	*	*clefC3	*	*clefG2	*	*clefG2	*	*clefF4	*	*clefF4	*	*clefF4	*	*clefG2	*	*clefG2	*	*clefG2	*	*clefG2	*	*clefG2	*	*clefF4	*	*clefF4	*	*clefG2	*	*clefG2	*	*clefG2	*
*ITrd7c12	*	*	*	*	*	*	*	*	*	*	*	*	*	*	*	*ITrd1c2	*	*ITrd4c7	*	*ITrd4c7	*	*ITrd4c7	*	*ITrd4c7	*	*	*	*	*	*ITrd1c2	*	*	*	*	*
*k[]	*	*k[]	*	*k[]	*	*k[]	*	*k[]	*	*k[]	*	*k[]	*	*k[]	*	*k[b-e-]	*	*k[b-]	*	*k[b-]	*	*k[b-]	*	*k[b-]	*	*k[]	*	*k[]	*	*k[]	*	*k[]	*	*k[]	*
*C:	*	*C:	*	*C:	*	*C:	*	*C:	*	*C:	*	*C:	*	*C:	*	*B-:	*	*F:	*	*F:	*	*F:	*	*F:	*	*C:	*	*C:	*	*C:	*	*C:	*	*C:	*
*M2/4	*	*M2/4	*	*M2/4	*	*M2/4	*	*M2/4	*	*M2/4	*	*M2/4	*	*M2/4	*	*M2/4	*	*M2/4	*	*M2/4	*	*M2/4	*	*M2/4	*	*M2/4	*	*M2/4	*	*M2/4	*	*M2/4	*	*M2/4	*
=1	=1	=1	=1	=1	=1	=1	=1	=1	=1	=1	=1	=1	=1	=1	=1	=1	=1	=1	=1	=1	=1	=1	=1	=1	=1	=1	=1	=1	=1	=1	=1	=1	=1	=1	=1
*	*	*	*	*	*	*	*	*	*	*tremolo	*	*	*	*	*	*	*	*	*	*	*	*	*	*	*	*	*	*	*	*	*	*	*	*	*
!LO:TX:a:t=arco	!	!LO:TX:a:t=arco	!	!	!	!	!	!	!	!LO:T:dot	!	!	!	!LO:TX:a:B:t=unis.	!	!	!	!	!	!	!	!	!	!	!	!	!	!	!	!LO:TX:a:B:t=unis.	!	!	!	!	!
4GG#X	f	12G#XL	f	12FL 12f	f	8ryy	4ryy	8ryy	4ryy	32ryy	4ryy	4ryy	4ryy	4ryy	4ryy	2r	.	2ryy	.	4ryy	.	4ryy	.	4ryy	.	(4F^	f	[2B	f	4ryy	4ryy	4ryy	4ryy	2ryy	.
.	.	.	.	.	.	.	.	.	.	32ryy	.	.	.	.	.	.	.	.	.	.	.	.	.	.	.	.	.	.	.	.	.	.	.	.	.
.	.	.	.	.	.	.	.	.	.	32ryy	.	.	.	.	.	.	.	.	.	.	.	.	.	.	.	.	.	.	.	.	.	.	.	.	.
.	.	12G#	.	12F 12f	.	.	.	.	.	.	.	.	.	.	.	.	.	.	.	.	.	.	.	.	.	.	.	.	.	.	.	.	.	.	.
.	.	.	.	.	.	.	.	.	.	32ryy	.	.	.	.	.	.	.	.	.	.	.	.	.	.	.	.	.	.	.	.	.	.	.	.	.
.	.	.	.	.	.	8ryy	.	8ryy	.	32ryy	.	.	.	.	.	.	.	.	.	.	.	.	.	.	.	.	.	.	.	.	.	.	.	.	.
.	.	.	.	.	.	.	.	.	.	32ryy	.	.	.	.	.	.	.	.	.	.	.	.	.	.	.	.	.	.	.	.	.	.	.	.	.
.	.	12G#J	.	12FJ 12f	.	.	.	.	.	.	.	.	.	.	.	.	.	.	.	.	.	.	.	.	.	.	.	.	.	.	.	.	.	.	.
.	.	.	.	.	.	.	.	.	.	32ryy	.	.	.	.	.	.	.	.	.	.	.	.	.	.	.	.	.	.	.	.	.	.	.	.	.
.	.	.	.	.	.	.	.	.	.	32ryy	.	.	.	.	.	.	.	.	.	.	.	.	.	.	.	.	.	.	.	.	.	.	.	.	.
4r	.	12G#L	.	12FL 12f	.	8ryy	.	8ryy	.	32ryy	.	4ryy	.	4ryy	.	.	.	.	.	4ryy	4ryy	4ryy	4ryy	4ryy	4ryy	4A-X')	.	.	.	4ryy	.	4ryy	.	.	.
.	.	.	.	.	.	.	.	.	.	32ryy	.	.	.	.	.	.	.	.	.	.	.	.	.	.	.	.	.	.	.	.	.	.	.	.	.
.	.	.	.	.	.	.	.	.	.	32ryy	.	.	.	.	.	.	.	.	.	.	.	.	.	.	.	.	.	.	.	.	.	.	.	.	.
.	.	12G#	.	12F 12f	.	.	.	.	.	.	.	.	.	.	.	.	.	.	.	.	.	.	.	.	.	.	.	.	.	.	.	.	.	.	.
.	.	.	.	.	.	.	.	.	.	32ryy	.	.	.	.	.	.	.	.	.	.	.	.	.	.	.	.	.	.	.	.	.	.	.	.	.
.	.	.	.	.	.	8ryy	.	8ryy	.	32ryy	.	.	.	.	.	.	.	.	.	.	.	.	.	.	.	.	.	.	.	.	.	.	.	.	.
.	.	.	.	.	.	.	.	.	.	32ryy	.	.	.	.	.	.	.	.	.	.	.	.	.	.	.	.	.	.	.	.	.	.	.	.	.
.	.	12G#J	.	12FJ 12f	.	.	.	.	.	.	.	.	.	.	.	.	.	.	.	.	.	.	.	.	.	.	.	.	.	.	.	.	.	.	.
.	.	.	.	.	.	.	.	.	.	32ryy	.	.	.	.	.	.	.	.	.	.	.	.	.	.	.	.	.	.	.	.	.	.	.	.	.
.	.	.	.	.	.	.	.	.	.	32ryy	.	.	.	.	.	.	.	.	.	.	.	.	.	.	.	.	.	.	.	.	.	.	.	.	.
=2	=2	=2	=2	=2	=2	=2	=2	=2	=2	=2	=2	=2	=2	=2	=2	=2	=2	=2	=2	=2	=2	=2	=2	=2	=2	=2	=2	=2	=2	=2	=2	=2	=2	=2	=2
!	!	!	!	!	!	!	!	!	!	!LO:T:dot	!	!	!	!	!	!	!	!	!	!	!	!	!	!	!	!	!	!	!	!	!	!	!	!	!
4GG#X	.	12G#XL	.	12FL 12f	.	8ryy	.	8ryy	.	32ryy	.	4ryy	.	4ryy	.	2r	.	2ryy	.	4ryy	.	4ryy	.	4ryy	.	(4F^	.	2B_	.	4ryy	.	4ryy	.	2ryy	.
.	.	.	.	.	.	.	.	.	.	32ryy	.	.	.	.	.	.	.	.	.	.	.	.	.	.	.	.	.	.	.	.	.	.	.	.	.
.	.	.	.	.	.	.	.	.	.	32ryy	.	.	.	.	.	.	.	.	.	.	.	.	.	.	.	.	.	.	.	.	.	.	.	.	.
.	.	12G#	.	12F 12f	.	.	.	.	.	.	.	.	.	.	.	.	.	.	.	.	.	.	.	.	.	.	.	.	.	.	.	.	.	.	.
.	.	.	.	.	.	.	.	.	.	32ryy	.	.	.	.	.	.	.	.	.	.	.	.	.	.	.	.	.	.	.	.	.	.	.	.	.
.	.	.	.	.	.	8ryy	.	8ryy	.	32ryy	.	.	.	.	.	.	.	.	.	.	.	.	.	.	.	.	.	.	.	.	.	.	.	.	.
.	.	.	.	.	.	.	.	.	.	32ryy	.	.	.	.	.	.	.	.	.	.	.	.	.	.	.	.	.	.	.	.	.	.	.	.	.
.	.	12G#J	.	12FJ 12f	.	.	.	.	.	.	.	.	.	.	.	.	.	.	.	.	.	.	.	.	.	.	.	.	.	.	.	.	.	.	.
.	.	.	.	.	.	.	.	.	.	32ryy	.	.	.	.	.	.	.	.	.	.	.	.	.	.	.	.	.	.	.	.	.	.	.	.	.
.	.	.	.	.	.	.	.	.	.	32ryy	.	.	.	.	.	.	.	.	.	.	.	.	.	.	.	.	.	.	.	.	.	.	.	.	.
4r	.	12G#L	.	12FL 12f	.	8ryy	.	8ryy	.	32ryy	.	4ryy	.	4ryy	.	.	.	.	.	4ryy	.	4ryy	.	4ryy	.	4A-X')	.	.	.	4ryy	.	4ryy	.	.	.
.	.	.	.	.	.	.	.	.	.	32ryy	.	.	.	.	.	.	.	.	.	.	.	.	.	.	.	.	.	.	.	.	.	.	.	.	.
.	.	.	.	.	.	.	.	.	.	32ryy	.	.	.	.	.	.	.	.	.	.	.	.	.	.	.	.	.	.	.	.	.	.	.	.	.
.	.	12G#	.	12F 12f	.	.	.	.	.	.	.	.	.	.	.	.	.	.	.	.	.	.	.	.	.	.	.	.	.	.	.	.	.	.	.
.	.	.	.	.	.	.	.	.	.	32ryy	.	.	.	.	.	.	.	.	.	.	.	.	.	.	.	.	.	.	.	.	.	.	.	.	.
.	.	.	.	.	.	8ryy	.	8ryy	.	32ryy	.	.	.	.	.	.	.	.	.	.	.	.	.	.	.	.	.	.	.	.	.	.	.	.	.
.	.	.	.	.	.	.	.	.	.	32ryy	.	.	.	.	.	.	.	.	.	.	.	.	.	.	.	.	.	.	.	.	.	.	.	.	.
.	.	12G#J	.	12FJ 12f	.	.	.	.	.	.	.	.	.	.	.	.	.	.	.	.	.	.	.	.	.	.	.	.	.	.	.	.	.	.	.
.	.	.	.	.	.	.	.	.	.	32ryy	.	.	.	.	.	.	.	.	.	.	.	.	.	.	.	.	.	.	.	.	.	.	.	.	.
.	.	.	.	.	.	.	.	.	.	32ryy	.	.	.	.	.	.	.	.	.	.	.	.	.	.	.	.	.	.	.	.	.	.	.	.	.
=3	=3	=3	=3	=3	=3	=3	=3	=3	=3	=3	=3	=3	=3	=3	=3	=3	=3	=3	=3	=3	=3	=3	=3	=3	=3	=3	=3	=3	=3	=3	=3	=3	=3	=3	=3
4GG#X	.	12G#XL	.	12FL 12f	.	8ryy	.	8ryy	.	32ryy	.	4ryy	.	4ryy	.	2r	.	2ryy	.	4ryy	.	4ryy	.	4ryy	.	(4F^	.	2B_	.	4ryy	.	4ryy	.	2ryy	.
.	.	.	.	.	.	.	.	.	.	32ryy	.	.	.	.	.	.	.	.	.	.	.	.	.	.	.	.	.	.	.	.	.	.	.	.	.
.	.	.	.	.	.	.	.	.	.	32ryy	.	.	.	.	.	.	.	.	.	.	.	.	.	.	.	.	.	.	.	.	.	.	.	.	.
.	.	12G#	.	12F 12f	.	.	.	.	.	.	.	.	.	.	.	.	.	.	.	.	.	.	.	.	.	.	.	.	.	.	.	.	.	.	.
.	.	.	.	.	.	.	.	.	.	32ryy	.	.	.	.	.	.	.	.	.	.	.	.	.	.	.	.	.	.	.	.	.	.	.	.	.
.	.	.	.	.	.	8ryy	.	8ryy	.	32ryy	.	.	.	.	.	.	.	.	.	.	.	.	.	.	.	.	.	.	.	.	.	.	.	.	.
.	.	.	.	.	.	.	.	.	.	32ryy	.	.	.	.	.	.	.	.	.	.	.	.	.	.	.	.	.	.	.	.	.	.	.	.	.
.	.	12G#J	.	12FJ 12f	.	.	.	.	.	.	.	.	.	.	.	.	.	.	.	.	.	.	.	.	.	.	.	.	.	.	.	.	.	.	.
.	.	.	.	.	.	.	.	.	.	32ryy	.	.	.	.	.	.	.	.	.	.	.	.	.	.	.	.	.	.	.	.	.	.	.	.	.
.	.	.	.	.	.	.	.	.	.	32ryy	.	.	.	.	.	.	.	.	.	.	.	.	.	.	.	.	.	.	.	.	.	.	.	.	.
4r	.	12G#L	.	12FL 12f	.	8ryy	.	8ryy	.	32ryy	.	4ryy	.	4ryy	.	.	.	.	.	4ryy	.	4ryy	.	4ryy	.	4A-X')	.	.	.	4ryy	.	4ryy	.	.	.
.	.	.	.	.	.	.	.	.	.	32ryy	.	.	.	.	.	.	.	.	.	.	.	.	.	.	.	.	.	.	.	.	.	.	.	.	.
.	.	.	.	.	.	.	.	.	.	32ryy	.	.	.	.	.	.	.	.	.	.	.	.	.	.	.	.	.	.	.	.	.	.	.	.	.
.	.	12G#	.	12F 12f	.	.	.	.	.	.	.	.	.	.	.	.	.	.	.	.	.	.	.	.	.	.	.	.	.	.	.	.	.	.	.
.	.	.	.	.	.	.	.	.	.	32ryy	.	.	.	.	.	.	.	.	.	.	.	.	.	.	.	.	.	.	.	.	.	.	.	.	.
.	.	.	.	.	.	8ryy	.	8ryy	.	32ryy	.	.	.	.	.	.	.	.	.	.	.	.	.	.	.	.	.	.	.	.	.	.	.	.	.
.	.	.	.	.	.	.	.	.	.	32ryy	.	.	.	.	.	.	.	.	.	.	.	.	.	.	.	.	.	.	.	.	.	.	.	.	.
.	.	12G#J	.	12FJ 12f	.	.	.	.	.	.	.	.	.	.	.	.	.	.	.	.	.	.	.	.	.	.	.	.	.	.	.	.	.	.	.
.	.	.	.	.	.	.	.	.	.	32ryy	.	.	.	.	.	.	.	.	.	.	.	.	.	.	.	.	.	.	.	.	.	.	.	.	.
.	.	.	.	.	.	.	.	.	.	32ryy	.	.	.	.	.	.	.	.	.	.	.	.	.	.	.	.	.	.	.	.	.	.	.	.	.
*	*	*	*	*	*	*	*	*	*	*Xtremolo	*	*	*	*	*	*	*	*	*	*	*	*	*	*	*	*	*	*	*	*	*	*	*	*	*
=4	=4	=4	=4	=4	=4	=4	=4	=4	=4	=4	=4	=4	=4	=4	=4	=4	=4	=4	=4	=4	=4	=4	=4	=4	=4	=4	=4	=4	=4	=4	=4	=4	=4	=4	=4
12GG#XL	<	12G#XL	<	12FL 12f	<	8ryy	.	8ryy	.	4ryy	.	4ryy	.	4ryy	.	2r	.	2ryy	.	4ryy	.	4ryy	.	4ryy	.	12A-X'L	<	4B]	.	4ryy	.	4ryy	.	2ryy	.
12GG#	.	12G#	.	12F 12f	.	.	.	.	.	.	.	.	.	.	.	.	.	.	.	.	.	.	.	.	.	12A-'	.	.	.	.	.	.	.	.	.
.	.	.	.	.	.	8ryy	.	8ryy	.	.	.	.	.	.	.	.	.	.	.	.	.	.	.	.	.	.	.	.	.	.	.	.	.	.	.
12GG#J	[	12G#J	[	12FJ 12f	[	.	.	.	.	.	.	.	.	.	.	.	.	.	.	.	.	.	.	.	.	12A-'J	[	.	.	.	.	.	.	.	.
4BB'	sf	4B'	sf	4F' 4f	sf	8ryy	.	8ryy	.	4ryy	.	8ryy	4ryy	8ryy	4ryy	.	.	.	.	8ryy	4ryy	8ryy	4ryy	8ryy	4ryy	4B'	sf	4B'	sf	4ryy	.	4ryy	.	.	.
.	.	.	.	.	.	8ryy	.	8ryy	.	.	.	8rJyy	.	8rJyy	.	.	.	.	.	8rJyy	.	8rJyy	.	8rJyy	.	.	.	.	.	.	.	.	.	.	.
=5	=5	=5	=5	=5	=5	=5	=5	=5	=5	=5	=5	=5	=5	=5	=5	=5	=5	=5	=5	=5	=5	=5	=5	=5	=5	=5	=5	=5	=5	=5	=5	=5	=5	=5	=5
4GG#X	.	12G#XL	.	12FL 12f	.	8ryy	.	8ryy	.	4ryy	.	4ryy	.	4ryy	.	2r	.	2ryy	.	4ryy	.	4ryy	.	4ryy	.	(4F^	.	[2B	.	4ryy	.	4ryy	.	2ryy	.
.	.	12G#	.	12F 12f	.	.	.	.	.	.	.	.	.	.	.	.	.	.	.	.	.	.	.	.	.	.	.	.	.	.	.	.	.	.	.
.	.	.	.	.	.	8ryy	.	8ryy	.	.	.	.	.	.	.	.	.	.	.	.	.	.	.	.	.	.	.	.	.	.	.	.	.	.	.
.	.	12G#J	.	12FJ 12f	.	.	.	.	.	.	.	.	.	.	.	.	.	.	.	.	.	.	.	.	.	.	.	.	.	.	.	.	.	.	.
4r	.	12G#L	.	12FL 12f	.	8ryy	.	8ryy	.	4ryy	.	4ryy	.	4ryy	.	.	.	.	.	4ryy	4ryy	4ryy	.	4ryy	.	4A-X')	.	.	.	4ryy	.	4ryy	.	.	.
.	.	12G#	.	12F 12f	.	.	.	.	.	.	.	.	.	.	.	.	.	.	.	.	.	.	.	.	.	.	.	.	.	.	.	.	.	.	.
.	.	.	.	.	.	8ryy	.	8ryy	.	.	.	.	.	.	.	.	.	.	.	.	.	.	.	.	.	.	.	.	.	.	.	.	.	.	.
.	.	12G#J	.	12FJ 12f	.	.	.	.	.	.	.	.	.	.	.	.	.	.	.	.	.	.	.	.	.	.	.	.	.	.	.	.	.	.	.
=6	=6	=6	=6	=6	=6	=6	=6	=6	=6	=6	=6	=6	=6	=6	=6	=6	=6	=6	=6	=6	=6	=6	=6	=6	=6	=6	=6	=6	=6	=6	=6	=6	=6	=6	=6
4GG#X	.	12G#XL	.	12FL 12f	.	8ryy	.	8ryy	.	4ryy	.	4ryy	.	4ryy	.	2r	.	2ryy	.	4ryy	.	4ryy	.	4ryy	.	(4F^	.	2B_	.	4ryy	.	4ryy	.	2ryy	.
.	.	12G#	.	12F 12f	.	.	.	.	.	.	.	.	.	.	.	.	.	.	.	.	.	.	.	.	.	.	.	.	.	.	.	.	.	.	.
.	.	.	.	.	.	8ryy	.	8ryy	.	.	.	.	.	.	.	.	.	.	.	.	.	.	.	.	.	.	.	.	.	.	.	.	.	.	.
.	.	12G#J	.	12FJ 12f	.	.	.	.	.	.	.	.	.	.	.	.	.	.	.	.	.	.	.	.	.	.	.	.	.	.	.	.	.	.	.
4r	.	12G#L	.	12FL 12f	.	8ryy	.	8ryy	.	4ryy	.	4ryy	.	4ryy	.	.	.	.	.	4ryy	.	4ryy	.	4ryy	.	4A-X')	.	.	.	4ryy	.	4ryy	.	.	.
.	.	12G#	.	12F 12f	.	.	.	.	.	.	.	.	.	.	.	.	.	.	.	.	.	.	.	.	.	.	.	.	.	.	.	.	.	.	.
.	.	.	.	.	.	8ryy	.	8ryy	.	.	.	.	.	.	.	.	.	.	.	.	.	.	.	.	.	.	.	.	.	.	.	.	.	.	.
.	.	12G#J	.	12FJ 12f	.	.	.	.	.	.	.	.	.	.	.	.	.	.	.	.	.	.	.	.	.	.	.	.	.	.	.	.	.	.	.
=7	=7	=7	=7	=7	=7	=7	=7	=7	=7	=7	=7	=7	=7	=7	=7	=7	=7	=7	=7	=7	=7	=7	=7	=7	=7	=7	=7	=7	=7	=7	=7	=7	=7	=7	=7
4GG#X	.	12G#XL	.	12FL 12f	.	8ryy	.	8ryy	.	4ryy	.	4ryy	.	4ryy	.	2r	.	2ryy	.	4ryy	.	4ryy	.	4ryy	.	(4F^	.	2B_	.	4ryy	.	4ryy	.	2ryy	.
.	.	12G#	.	12F 12f	.	.	.	.	.	.	.	.	.	.	.	.	.	.	.	.	.	.	.	.	.	.	.	.	.	.	.	.	.	.	.
.	.	.	.	.	.	8ryy	.	8ryy	.	.	.	.	.	.	.	.	.	.	.	.	.	.	.	.	.	.	.	.	.	.	.	.	.	.	.
.	.	12G#J	.	12FJ 12f	.	.	.	.	.	.	.	.	.	.	.	.	.	.	.	.	.	.	.	.	.	.	.	.	.	.	.	.	.	.	.
4r	.	12G#L	.	12FL 12f	.	8ryy	.	8ryy	.	4ryy	.	4ryy	.	4ryy	.	.	.	.	.	4ryy	.	4ryy	.	4ryy	.	4A-X')	.	.	.	4ryy	.	4ryy	.	.	.
.	.	12G#	.	12F 12f	.	.	.	.	.	.	.	.	.	.	.	.	.	.	.	.	.	.	.	.	.	.	.	.	.	.	.	.	.	.	.
.	.	.	.	.	.	8ryy	.	8ryy	.	.	.	.	.	.	.	.	.	.	.	.	.	.	.	.	.	.	.	.	.	.	.	.	.	.	.
.	.	12G#J	.	12FJ 12f	.	.	.	.	.	.	.	.	.	.	.	.	.	.	.	.	.	.	.	.	.	.	.	.	.	.	.	.	.	.	.
=8	=8	=8	=8	=8	=8	=8	=8	=8	=8	=8	=8	=8	=8	=8	=8	=8	=8	=8	=8	=8	=8	=8	=8	=8	=8	=8	=8	=8	=8	=8	=8	=8	=8	=8	=8
12GG#XL	<	12G#XL	<	12FL 12f	<	8ryy	.	8ryy	.	4ryy	.	4ryy	.	4ryy	.	2r	.	2ryy	.	4ryy	.	4ryy	.	4ryy	.	12A-X'L	<	4B]	.	4ryy	.	4ryy	.	2ryy	.
12GG#	.	12G#	.	12F 12f	.	.	.	.	.	.	.	.	.	.	.	.	.	.	.	.	.	.	.	.	.	12A-'	.	.	.	.	.	.	.	.	.
.	.	.	.	.	.	8ryy	.	8ryy	.	.	.	.	.	.	.	.	.	.	.	.	.	.	.	.	.	.	.	.	.	.	.	.	.	.	.
12GG#J	[	12G#J	[	12FJ 12f	[	.	.	.	.	.	.	.	.	.	.	.	.	.	.	.	.	.	.	.	.	12A-'J	[	.	.	.	.	.	.	.	.
4BB'	sf	4B'	sf	4F' 4f	sf	8ryy	.	8ryy	.	4ryy	.	8ryy	.	8ryy	.	.	.	.	.	8ryy	4ryy	8ryy	4ryy	8ryy	4ryy	4B'	sf	4B'	sf	4ryy	.	4ryy	.	.	.
.	.	.	.	.	.	8ryy	.	8ryy	.	.	.	8rJyy	.	8rJyy	.	.	.	.	.	8rJyy	.	8rJyy	.	8rJyy	.	.	.	.	.	.	.	.	.	.	.
=9	=9	=9	=9	=9	=9	=9	=9	=9	=9	=9	=9	=9	=9	=9	=9	=9	=9	=9	=9	=9	=9	=9	=9	=9	=9	=9	=9	=9	=9	=9	=9	=9	=9	=9	=9
12FFL	<	12FL	<	12BL 12d	<	8ryy	.	8ryy	.	4ryy	.	4ryy	.	4ryy	.	2r	.	2ryy	.	4ryy	.	4ryy	.	4ryy	.	12FL	<	12FL	<	4ryy	.	4ryy	.	4ryy	.
12FF	.	12F	.	12B 12d	.	.	.	.	.	.	.	.	.	.	.	.	.	.	.	.	.	.	.	.	.	12F	.	12F	.	.	.	.	.	.	.
.	.	.	.	.	.	8ryy	.	8ryy	.	.	.	.	.	.	.	.	.	.	.	.	.	.	.	.	.	.	.	.	.	.	.	.	.	.	.
12FFJ	[	12FJ	[	12BJ 12d	[	.	.	.	.	.	.	.	.	.	.	.	.	.	.	.	.	.	.	.	.	12FJ	[	12FJ	[	.	.	.	.	.	.
4AA-X'	sf	4A-X'	sf	4B' 4d	sf	8ryy	.	8ryy	.	4ryy	.	4ryy	.	4ryy	.	.	.	.	.	8ryy	.	8ryy	.	8ryy	.	4A-X'	sf	4A-X'	sf	8ryy	4ryy	8ryy	4ryy	8ryy	4ryy
.	.	.	.	.	.	8ryy	.	8ryy	.	.	.	.	.	.	.	.	.	.	.	8rJyy	.	8rJyy	.	8rJyy	.	.	.	.	.	8rJyy	.	8rJyy	.	8rJyy	.
=10	=10	=10	=10	=10	=10	=10	=10	=10	=10	=10	=10	=10	=10	=10	=10	=10	=10	=10	=10	=10	=10	=10	=10	=10	=10	=10	=10	=10	=10	=10	=10	=10	=10	=10	=10
12GG#XL	<	12G#XL	<	12BL 12d	<	8ryy	.	8ryy	.	4ryy	.	4ryy	.	4ryy	.	2r	.	2ryy	.	4ryy	.	4ryy	.	4ryy	.	12G#XL	<	12G#XL	<	4ryy	.	4ryy	.	4ryy	.
12GG#	.	12G#	.	12B 12d	.	.	.	.	.	.	.	.	.	.	.	.	.	.	.	.	.	.	.	.	.	12G#	.	12G#	.	.	.	.	.	.	.
.	.	.	.	.	.	8ryy	.	8ryy	.	.	.	.	.	.	.	.	.	.	.	.	.	.	.	.	.	.	.	.	.	.	.	.	.	.	.
12GG#J	[	12G#J	[	12BJ 12d	[	.	.	.	.	.	.	.	.	.	.	.	.	.	.	.	.	.	.	.	.	12G#J	[	12G#J	[	.	.	.	.	.	.
4BB'	sf	4B'	sf	4B' 4d	sf	8ryy	.	8ryy	.	8ryy	.	4ryy	.	4ryy	.	.	.	.	.	8ryy	.	8ryy	.	8ryy	.	4B'	sf	4B'	sf	8ryy	.	8ryy	.	8ryy	.
.	.	.	.	.	.	8ryy	.	8ryy	.	8ryy	.	.	.	.	.	.	.	.	.	8rJyy	.	8rJyy	.	8rJyy	.	.	.	.	.	8rJyy	.	8rJyy	.	8rJyy	.
=11	=11	=11	=11	=11	=11	=11	=11	=11	=11	=11	=11	=11	=11	=11	=11	=11	=11	=11	=11	=11	=11	=11	=11	=11	=11	=11	=11	=11	=11	=11	=11	=11	=11	=11	=11
*	*	*	*	*	*	*	*	*	*	*	*	*	*	*	*	*	*	*	*	*	*	*	*	*	*	*	*	*	*	*^	*	*	*	*	*
*	*	*	*	*	*	*	*	*	*	*tremolo	*	*	*	*	*	*	*	*	*	*	*	*	*	*	*	*	*	*	*	*	*	*	*	*	*	*
12FFL	.	12FL	.	12BL 12d	.	16ryy	.	16ryy	.	4ryy	.	4ryy	.	4ryy	.	4r	.	2ryy	4ryy	8ryy	.	2ryy	4ryy	8ryy	.	12FL	.	12FL	.	2ryy	8ryy	.	8ryy	.	8ryy	.
.	.	.	.	.	.	16ryy	.	16ryy	.	.	.	.	.	.	.	.	.	.	.	.	.	.	.	.	.	.	.	.	.	.	.	.	.	.	.	.
12FF	.	12F	.	12B 12d	.	.	.	.	.	.	.	.	.	.	.	.	.	.	.	.	.	.	.	.	.	12F	.	12F	.	.	.	.	.	.	.	.
.	.	.	.	.	.	8ryy	.	8ryy	.	.	.	.	.	.	.	.	.	.	.	8ryy	4ryy	.	.	8ryy	4ryy	.	.	.	.	.	8ryy	4ryy	8ryy	4ryy	8ryy	4ryy
12FFJ	.	12FJ	.	12BJ 12d	.	.	.	.	.	.	.	.	.	.	.	.	.	.	.	.	.	.	.	.	.	12FJ	.	12FJ	.	.	.	.	.	.	.	.
!	!	!	!	!	!	!	!	!	!	!LO:T:dot	!	!	!	!	!	!	!	!	!	!	!	!	!	!	!	!	!	!	!	!	!	!	!	!	!	!
4AA-X'	sf <	4A-X'	sf <	12BL 12d	<	16ryy	4ryy	16ryy	4ryy	32ryy	4ryy	4ryy	4ryy	4ryy	4ryy	12AL 12a	mf	.	.	8ryy	.	.	.	8ryy	.	4A-X'	sf <	4A-X'	sf <	.	8ryy	.	8ryy	.	8ryy	.
.	.	.	.	.	.	.	.	.	.	32ryy	.	.	.	.	.	.	.	.	.	.	.	.	.	.	.	.	.	.	.	.	.	.	.	.	.	.
.	.	.	.	.	.	16ryy	.	16ryy	.	32ryy	.	.	.	.	.	.	.	.	.	.	.	.	.	.	.	.	.	.	.	.	.	.	.	.	.	.
.	.	.	.	12B 12d	.	.	.	.	.	.	.	.	.	.	.	12A 12a	<	.	.	.	.	.	.	.	.	.	.	.	.	.	.	.	.	.	.	.
.	.	.	.	.	.	.	.	.	.	32ryy	.	.	.	.	.	.	.	.	.	.	.	.	.	.	.	.	.	.	.	.	.	.	.	.	.	.
.	.	.	.	.	.	8ryy	.	8ryy	.	32ryy	.	.	.	.	.	.	.	.	.	8ryy	.	.	.	8ryy	.	.	.	.	.	.	8ryy	.	8ryy	.	8ryy	.
.	.	.	.	.	.	.	.	.	.	32ryy	.	.	.	.	.	.	.	.	.	.	.	.	.	.	.	.	.	.	.	.	.	.	.	.	.	.
.	.	.	.	12BJ 12d	.	.	.	.	.	.	.	.	.	.	.	12AJ 12a	.	.	.	.	.	.	.	.	.	.	.	.	.	.	.	.	.	.	.	.
.	.	.	.	.	.	.	.	.	.	32ryy	.	.	.	.	.	.	.	.	.	.	.	.	.	.	.	.	.	.	.	.	.	.	.	.	.	.
.	.	.	.	.	.	.	.	.	.	32ryy	.	.	.	.	.	.	.	.	.	.	.	.	.	.	.	.	.	.	.	.	.	.	.	.	.	.
=12	=12	=12	=12	=12	=12	=12	=12	=12	=12	=12	=12	=12	=12	=12	=12	=12	=12	=12	=12	=12	=12	=12	=12	=12	=12	=12	=12	=12	=12	=12	=12	=12	=12	=12	=12	=12
12GG#XL	.	12G#XL	.	12BL 12d	.	16ryy	.	16ryy	.	32ryy	4ryy	4ryy	.	4ryy	.	12AL 12a	.	2ryy	4ryy	8ryy	.	2ryy	4ryy	8ryy	.	12G#XL	.	12G#XL	.	2ryy	8ryy	.	8ryy	.	8ryy	.
.	.	.	.	.	.	.	.	.	.	32ryy	.	.	.	.	.	.	.	.	.	.	.	.	.	.	.	.	.	.	.	.	.	.	.	.	.	.
.	.	.	.	.	.	16ryy	.	16ryy	.	32ryy	.	.	.	.	.	.	.	.	.	.	.	.	.	.	.	.	.	.	.	.	.	.	.	.	.	.
12GG#	.	12G#	.	12B 12d	.	.	.	.	.	.	.	.	.	.	.	12A 12a	.	.	.	.	.	.	.	.	.	12G#	.	12G#	.	.	.	.	.	.	.	.
.	.	.	.	.	.	.	.	.	.	32ryy	.	.	.	.	.	.	.	.	.	.	.	.	.	.	.	.	.	.	.	.	.	.	.	.	.	.
.	.	.	.	.	.	8ryy	.	8ryy	.	32ryy	.	.	.	.	.	.	.	.	.	8ryy	.	.	.	8ryy	.	.	.	.	.	.	8ryy	.	8ryy	.	8ryy	.
.	.	.	.	.	.	.	.	.	.	32ryy	.	.	.	.	.	.	.	.	.	.	.	.	.	.	.	.	.	.	.	.	.	.	.	.	.	.
12GG#J	.	12G#J	.	12BJ 12d	.	.	.	.	.	.	.	.	.	.	.	12AJ 12a	.	.	.	.	.	.	.	.	.	12G#J	[	12G#J	[	.	.	.	.	.	.	.
.	.	.	.	.	.	.	.	.	.	32ryy	.	.	.	.	.	.	.	.	.	.	.	.	.	.	.	.	.	.	.	.	.	.	.	.	.	.
.	.	.	.	.	.	.	.	.	.	32ryy	.	.	.	.	.	.	.	.	.	.	.	.	.	.	.	.	.	.	.	.	.	.	.	.	.	.
4BB'	sf [	4B'	sf [	12BL 12d	.	16ryy	.	16ryy	.	32ryy	.	4ryy	4ryy	4ryy	4ryy	12AL 12a	.	.	.	8ryy	.	.	.	8ryy	.	4B'	sf	4B'	sf	.	8ryy	.	8ryy	.	8ryy	.
.	.	.	.	.	.	.	.	.	.	32ryy	.	.	.	.	.	.	.	.	.	.	.	.	.	.	.	.	.	.	.	.	.	.	.	.	.	.
.	.	.	.	.	.	16ryy	.	16ryy	.	32ryy	.	.	.	.	.	.	.	.	.	.	.	.	.	.	.	.	.	.	.	.	.	.	.	.	.	.
.	.	.	.	12B 12d	.	.	.	.	.	.	.	.	.	.	.	12A 12a	.	.	.	.	.	.	.	.	.	.	.	.	.	.	.	.	.	.	.	.
.	.	.	.	.	.	.	.	.	.	32ryy	.	.	.	.	.	.	.	.	.	.	.	.	.	.	.	.	.	.	.	.	.	.	.	.	.	.
.	.	.	.	.	.	8ryy	4ryy	8ryy	4ryy	32ryy	.	.	.	.	.	.	.	.	.	8ryy	4ryy	.	.	8ryy	4ryy	.	.	.	.	.	8ryy	4ryy	8ryy	4ryy	8ryy	4ryy
.	.	.	.	.	.	.	.	.	.	32ryy	.	.	.	.	.	.	.	.	.	.	.	.	.	.	.	.	.	.	.	.	.	.	.	.	.	.
.	.	.	.	12BJ 12d	[	.	.	.	.	.	.	.	.	.	.	12AJ 12a	[	.	.	.	.	.	.	.	.	.	.	.	.	.	.	.	.	.	.	.
.	.	.	.	.	.	.	.	.	.	32ryy	.	.	.	.	.	.	.	.	.	.	.	.	.	.	.	.	.	.	.	.	.	.	.	.	.	.
.	.	.	.	.	.	.	.	.	.	32ryy	.	.	.	.	.	.	.	.	.	.	.	.	.	.	.	.	.	.	.	.	.	.	.	.	.	.
*	*	*	*	*	*	*	*	*	*	*Xtremolo	*	*	*	*	*	*	*	*	*	*	*	*	*	*	*	*	*	*	*	*	*	*	*	*	*	*
*	*	*	*	*	*	*	*	*	*	*	*	*	*	*	*	*	*	*	*	*	*	*	*	*	*	*	*	*	*	*v	*v	*	*	*	*	*
=	=	=	=	=	=	=	=	=	=	=	=	=	=	=	=	=	=	=	=	=	=	=	=	=	=	=	=	=	=	=	=	=	=	=	=
*-	*-	*-	*-	*-	*-	*-	*-	*-	*-	*-	*-	*-	*-	*-	*-	*-	*-	*-	*-	*-	*-	*-	*-	*-	*-	*-	*-	*-	*-	*-	*-	*-	*-	*-	*-
!!!system-decoration: [(s1,s2,s3[(s4,s5)])][([(s6,s7,s8,s9)]s10[(s11,s12)])][(s13)][([(s14,s15)]s16,s17,s18)]
